X:1
T:Title
%%score { ( 1 4 ) | ( 2 3 ) }
L:1/8
M:4/4
K:Ab
V:1 treble nm="Grand Piano"
V:4 treble 
V:2 treble 
V:3 treble 
V:1
 z8[Q:1/4=92] | z z/ [CA]/ [A,C]>[DF] [CE]>E F>E |[M:11/16] d/-d/-d/-d/-d/-d/-d/-d-<d | %3
[M:5/16] E<FE/ |[M:4/4] d6 z2 |[M:11/16] c/-c/-c/-c/-c/-c/-c/-c-<c |[M:5/16] z5/2 | %7
[M:4/4] z z/ [CA]/ [A,C]>[DF] [CE]>E F>E |[M:11/16] d/-d/-d/-d/-d/-d/-d/-d-<d |[M:5/16] E<FE/ | %10
[M:4/4] d6 z2 |[M:11/16] A/-A/-A/-A/-A/-A/-A/-A-<A |[M:5/16] c<dc/ |[M:4/4] e6 z2 | %14
[M:11/16] c/-c/-c/-c/-c/-c/-c/-c-<c |[M:5/16] E<FE/ |[M:4/4] d6 z2 | %17
[M:11/16] c/-c/-c/-c/-c/-c/-c/-c-<c |[M:5/16] c<dc/ |[M:4/4] e6 z2 | %20
[M:11/16] c/-c/-c/-c/-c/-c/-c/-c-<c |[M:5/16] E<FE/ |[M:4/4] d6 z2 | %23
[M:25/32] A-A/4-A-A/4- A3- A3/4 |] %24
V:2
 z4 z z/ E/ F>E | c6[K:bass] z2 |[M:11/16] z/ z [E,D]<[E,D][E,D]<[E,G,] |[M:5/16] z5/2 | %4
[M:4/4] z z/ [E,D]/ [E,D]>[E,D] [E,G,]2 z2 |[M:11/16] z/ z A,,<A,,A,,<A,, | %6
[M:5/16] E<[K:treble]FE/ |[M:4/4] c6[K:bass] z2 |[M:11/16] z/ z [E,D]<[E,D][E,D]<[E,G,] | %9
[M:5/16] z5/2 |[M:4/4] z z/ [E,D]/ [E,D]>[E,D] [E,G,]2 z2 |[M:11/16] z/ z A,,<A,,A,,<A,, | %12
[M:5/16] z5/2 |[M:4/4] z z/ [E,D]/ [E,D]>[E,D] [E,G,]2 z2 |[M:11/16] z/ z [A,C]<A,[A,D]<[A,C] | %15
[M:5/16] z5/2 |[M:4/4] z z/ [E,D]/ [E,D]>[E,D] [E,G,]2 z2 |[M:11/16] z/ z A,,<A,,A,,<A,, | %18
[M:5/16] z5/2 |[M:4/4] z z/ [E,D]/ [E,D]>[E,D] [E,D]2 z2 |[M:11/16] z/ z [A,C]<A,[A,D]<[A,C] | %21
[M:5/16] z5/2 |[M:4/4] z z/ [E,D]/ [E,D]>[E,D] [E,G,]2 z2 | %23
[M:25/32] z3/2 [A,,A,]<[A,,G,][A,,F,]/ [A,,E,]2- [A,,E,]/4 |] %24
V:3
 x8 | z z/[K:bass] A,,/ A,,>A,, A,,2 z2 |[M:11/16] x11/2 |[M:5/16] x5/2 |[M:4/4] x8 | %5
[M:11/16] x11/2 |[M:5/16] x/[K:treble] x2 |[M:4/4] z z/[K:bass] A,,/ A,,>A,, A,,2 z2 | %8
[M:11/16] x11/2 |[M:5/16] x5/2 |[M:4/4] x8 |[M:11/16] x11/2 |[M:5/16] x5/2 |[M:4/4] x8 | %14
[M:11/16] x11/2 |[M:5/16] x5/2 |[M:4/4] x8 |[M:11/16] x11/2 |[M:5/16] x5/2 |[M:4/4] x8 | %20
[M:11/16] x11/2 |[M:5/16] x5/2 |[M:4/4] x8 |[M:25/32] x25/4 |] %24
V:4
 x8 | x8 |[M:11/16] z/ z B<GF<E |[M:5/16] x5/2 |[M:4/4] z z/ B/ G>F E>d c>B | %5
[M:11/16] z/ z [CA]<[A,C][DF]<[CE] |[M:5/16] x5/2 |[M:4/4] x8 |[M:11/16] z/ z B<GF<E | %9
[M:5/16] x5/2 |[M:4/4] z z/ B/ G>F E>c B>c |[M:11/16] z/ z [DF]<[CE][B,D]<[A,C] |[M:5/16] x5/2 | %13
[M:4/4] z z/ B/ G>F E>B =A>_c |[M:11/16] z/ z A<CF<E |[M:5/16] x5/2 |[M:4/4] z z/ B/ G>F E>d c>B | %17
[M:11/16] z/ z [CA]<[A,C][DF]<[CE] |[M:5/16] x5/2 |[M:4/4] z z/ B/ G>F E>B =A>B | %20
[M:11/16] z/ z A<CF<E |[M:5/16] x5/2 |[M:4/4] z z/ B/ G>F E>c B>c |[M:25/32] z3/2 F<ED/ C2- C/4 |] %24

